korla/apps/scalable/re.sonny.Tangram.svg

<svg width="48" height="48" enable-background="new" xmlns="http://www.w3.org/2000/svg">
 <path d="m7.0761719 5c-.8523077 0-1.621581.3422837-2.1777344.8984375-.5561539.5561538-.8984375 1.3254267-.8984375 2.1777344v33.8476561c0 .852308.3422836 1.621581.8984375 2.177734.5561534.556154 1.3254267.898438 2.1777344.898438h16.9238281 16.923828c1.704615 0 3.076172-1.371556 3.076172-3.076172v-16.923828-16.9238281c0-.8523077-.342284-1.6215806-.898438-2.1777344-.556153-.5561538-1.325426-.8984375-2.177734-.8984375z" opacity=".2"/>
 <path d="m7.0769231 3.9999995c-.8523077 0-1.6215808.343035-2.1777342.8991888l19.1008111 19.1008107 19.100811-19.1008107c-.556153-.5561538-1.325426-.8991888-2.177734-.8991888z" fill="#33d17a"/>
 <path d="m4.8991889 4.8991883c-.5561539.5561538-.8991889 1.3254265-.8991889 2.1777342v33.8461545c0 .852308.343035 1.621581.8991889 2.177735l19.1008111-19.100813z" fill="#3584e4"/>
 <path d="m43.100811 4.8991883-9.100811 9.1008107 10 10v-16.9230765c0-.8523077-.343035-1.6215804-.899189-2.1777342z" fill="#5e5c64"/>
 <path transform="matrix(.70710678 -.70710678 .70710678 .70710678 0 0)" d="m0 33.94h14.142v14.142h-14.142z" fill="#f6d32d"/>
 <path d="m44 23.999999-20 20.000002h16.923077c1.704615 0 3.076923-1.372308 3.076923-3.076924z" fill="#865e3c"/>
 <path d="m33.99999 33.999996h-19.99999l10-10z" fill="#ff7800"/>
 <path d="m14 33.999999-9.1008111 9.100813c.5561534.556154 1.3254265.899189 2.1777342.899189h16.9230769l10-10.000002z" fill="#ed333b"/>
 <path d="m7.0761719 4c-.8523077 0-1.621581.3422837-2.1777344.8984375-.5561539.5561538-.8984375 1.3254267-.8984375 2.1777344v1c0-.8523077.3422836-1.6215806.8984375-2.1777344.5561534-.5561538 1.3254267-.8984375 2.1777344-.8984375h33.8476561c.852308 0 1.621581.3422837 2.177734.8984375.556154.5561538.898438 1.3254267.898438 2.1777344v-1c0-.8523077-.342284-1.6215806-.898438-2.1777344-.556153-.5561538-1.325426-.8984375-2.177734-.8984375z" fill="#fff" opacity=".2"/>
 <path d="m4.8984375 4.8984375c-.5561539.5561538-.8984375 1.3254267-.8984375 2.1777344v1c0-.8523077.3422836-1.6215806.8984375-2.1777344l19.1015625 19.1015625 9 9h1l-10-10z" opacity=".1"/>
 <path d="m42.537109 5.4628906-18.537109 18.5371094-19.1015625 19.101562c-.5561539-.556152-.8984375-1.325426-.8984375-2.177734v1c0 .852308.3422836 1.621582.8984375 2.177734l19.1015625-19.101562 19.101562-19.1015625c-.168243-.1682436-.360804-.3100025-.564453-.4355469z" opacity=".1"/>
 <path d="m14 34-1 1h20l1-1z" opacity=".1"/>
</svg>

<svg xmlns="http://www.w3.org/2000/svg" style="enable-background:new" width="48" height="48" version="1.0">
 <path style="opacity:0.2" d="M 7.0761719,5 C 6.2238642,5 5.4545909,5.3422837 4.8984375,5.8984375 4.3422836,6.4545913 4,7.2238642 4,8.0761719 V 41.923828 c 0,0.852308 0.3422836,1.621581 0.8984375,2.177734 C 5.4545909,44.657716 6.2238642,45 7.0761719,45 H 24 40.923828 C 42.628443,45 44,43.628444 44,41.923828 V 25 8.0761719 C 44,7.2238642 43.657716,6.4545913 43.101562,5.8984375 42.545409,5.3422837 41.776136,5 40.923828,5 Z"/>
 <path style="fill:#33d17a" d="m 7.0769231,3.9999995 c -0.8523077,0 -1.6215808,0.343035 -2.1777342,0.8991888 L 24,23.999999 43.100811,4.8991883 C 42.544658,4.3430345 41.775385,3.9999995 40.923077,3.9999995 Z"/>
 <path style="fill:#3584e4" d="M 4.8991889,4.8991883 C 4.343035,5.4553421 4,6.2246148 4,7.0769225 V 40.923077 c 0,0.852308 0.343035,1.621581 0.8991889,2.177735 L 24,23.999999 Z"/>
 <path style="fill:#5e5c64" d="M 43.100811,4.8991883 34,13.999999 l 10,10 V 7.0769225 C 44,6.2246148 43.656965,5.4553421 43.100811,4.8991883 Z"/>
 <rect style="fill:#f6d32d" width="14.142" height="14.142" x="0" y="33.94" transform="rotate(-45)"/>
 <path style="fill:#865e3c" d="M 44,23.999999 24,44.000001 H 40.923077 C 42.627692,44.000001 44,42.627693 44,40.923077 Z"/>
 <path style="fill:#ff7800" d="M 33.99999,33.999996 H 14 l 10,-10 z"/>
 <path style="fill:#ed333b" d="m 14,33.999999 -9.1008111,9.100813 c 0.5561534,0.556154 1.3254265,0.899189 2.1777342,0.899189 H 24 L 34,33.999999 Z"/>
 <path style="fill:#ffffff;opacity:0.2" d="M 7.0761719 4 C 6.2238642 4 5.4545909 4.3422837 4.8984375 4.8984375 C 4.3422836 5.4545913 4 6.2238642 4 7.0761719 L 4 8.0761719 C 4 7.2238642 4.3422836 6.4545913 4.8984375 5.8984375 C 5.4545909 5.3422837 6.2238642 5 7.0761719 5 L 40.923828 5 C 41.776136 5 42.545409 5.3422837 43.101562 5.8984375 C 43.657716 6.4545913 44 7.2238642 44 8.0761719 L 44 7.0761719 C 44 6.2238642 43.657716 5.4545913 43.101562 4.8984375 C 42.545409 4.3422837 41.776136 4 40.923828 4 L 7.0761719 4 z"/>
 <path style="opacity:0.1" d="M 4.8984375 4.8984375 C 4.3422836 5.4545913 4 6.2238642 4 7.0761719 L 4 8.0761719 C 4 7.2238642 4.3422836 6.4545913 4.8984375 5.8984375 L 24 25 L 33 34 L 34 34 L 24 24 L 4.8984375 4.8984375 z"/>
 <path style="opacity:0.1" d="M 42.537109 5.4628906 L 24 24 L 4.8984375 43.101562 C 4.3422836 42.54541 4 41.776136 4 40.923828 L 4 41.923828 C 4 42.776136 4.3422836 43.54541 4.8984375 44.101562 L 24 25 L 43.101562 5.8984375 C 42.933319 5.7301939 42.740758 5.588435 42.537109 5.4628906 z"/>
 <path style="opacity:0.1" d="M 14 34 L 13 35 L 33 35 L 34 34 L 14 34 z"/>
</svg>
